X: 9155
T: Spring at Last! (with piano acc.)
C: BB
R: jig
Q: 1/8=320
M: 6/8
L: 1/8
V: 1 program 1 110 %fiddle
V: 2 volume=70 clef=bass m=D program 1 00
K: D
[V:1] B | "D"AFA "Bm"dBd | "A"ece "G"gfg | "D"fga "Em"bge | "D"afd "A"ecA |
[V:2] z|D,2[AFD]B,,2[BFD]|A,,2[AEC]G,,2[GDB]|D,2[AFD]E,2[EBG]|D,2[AFD]A,,2[AEC]|
%
[V:1] "D"AFA "Bm"dBd | "A"ece "G"gfg | "D"fed "G"gab | "A"ecA "D"d2 :|
[V:2] D,2[AFD]B,,2[BFD]|A,,2[AEC]G,,2[GDB]|D,2[AFD]G,,2[GDB]|A,,2[AEC][D,2A,2F2]:|
%
[V:1] e|"G"gab "D"a2 f | "Em"gee "D"fdd | "G"gBB "A"cee | "Bm"dcB "A"A2 B |
[V:2] z|G,,2[GDB]D,2[AFD]|E,2[EBG]D,2[AFD]|G,,2[GDB]A,,2[AEC]|B,,2[BFD]A,,2[AEC]|
%
[V:1] "D"AFA "Bm"dBd | "A"ece "G"gfg | "D"fdA "Em7"Bed |"A"cBc "D"d2 :|
[V:2] D,2[AFD]B,,2[BFD]|A,,2[AEC]G,,2[GDB]|D,2[AFD]E,2[DBG]|A,,2[AEC][D,2A,2F2]:|
%%%%%%%%%tune repeat
[V:1] B | "D"AFA "Bm"dBd | "A"ece "G"gfg | "D"fga "Em"bge | "D"afd "A"ecA |
[V:2] z|D,2[AFD]B,,2[BFD]|A,,2[AEC]G,,2[GDB]|D,2[AFD]E,2[EBG]|D,2[AFD]A,,2[AEC]|
%
[V:1] "D"AFA "Bm"dBd | "A"ece "G"gfg | "D"fed "G"gab | "A"ecA "D"d2 :|
[V:2] D,2[AFD]B,,2[BFD]|A,,2[AEC]G,,2[GDB]|D,2[AFD]G,,2[GDB]|A,,2[AEC][D,2A,2F2]:|
%
[V:1] e|"G"gab "D"a2 f | "Em"gee "D"fdd | "G"gBB "A"cee | "Bm"dcB "A"A2 B |
[V:2] z|G,,2[GDB]D,2[AFD]|E,2[EBG]D,2[AFD]|G,,2[GDB]A,,2[AEC]|B,,2[BFD]A,,2[AEC]|
%
[V:1] "D"AFA "Bm"dBd | "A"ece "G"gfg | "D"fdA "Em7"Bed |1 "A"cBc "D"d2 :|2\
"A"cBc "D"Hd3||
[V:2] D,2[AFD]B,,2[BFD]|A,,2[AEC]G,,2[GDB]|D,2[AFD]E,2[DBG]|1 A,,2[AEC][D,2A,2F2]:|2\
A,,2[AEC]H[D,3A,3F3]||

%%%%%%%%%%%%%%%%%%%%%%%%%%%%%%%%%%%%%%%%%%%

